images/667544.svg

<?xml version="1.0" encoding="UTF-8"?>
<svg xmlns="http://www.w3.org/2000/svg" xmlns:xlink="http://www.w3.org/1999/xlink" width="300pt" height="300pt" viewBox="0 0 300 300" version="1.1">
<defs>
<g>
<symbol overflow="visible" id="glyph0-0">
<path style="stroke:none;" d="M 0.640625 2.296875 L 0.640625 -9.171875 L 7.140625 -9.171875 L 7.140625 2.296875 Z M 1.375 1.578125 L 6.421875 1.578125 L 6.421875 -8.4375 L 1.375 -8.4375 Z M 1.375 1.578125 "/>
</symbol>
<symbol overflow="visible" id="glyph0-1">
<path style="stroke:none;" d="M 5.125 -8.609375 C 4.1875 -8.609375 3.441406 -8.257812 2.890625 -7.5625 C 2.347656 -6.875 2.078125 -5.929688 2.078125 -4.734375 C 2.078125 -3.535156 2.347656 -2.585938 2.890625 -1.890625 C 3.441406 -1.203125 4.1875 -0.859375 5.125 -0.859375 C 6.050781 -0.859375 6.785156 -1.203125 7.328125 -1.890625 C 7.878906 -2.585938 8.15625 -3.535156 8.15625 -4.734375 C 8.15625 -5.929688 7.878906 -6.875 7.328125 -7.5625 C 6.785156 -8.257812 6.050781 -8.609375 5.125 -8.609375 Z M 5.125 -9.65625 C 6.445312 -9.65625 7.503906 -9.207031 8.296875 -8.3125 C 9.097656 -7.414062 9.5 -6.222656 9.5 -4.734375 C 9.5 -3.234375 9.097656 -2.035156 8.296875 -1.140625 C 7.503906 -0.253906 6.445312 0.1875 5.125 0.1875 C 3.789062 0.1875 2.722656 -0.253906 1.921875 -1.140625 C 1.128906 -2.035156 0.734375 -3.234375 0.734375 -4.734375 C 0.734375 -6.222656 1.128906 -7.414062 1.921875 -8.3125 C 2.722656 -9.207031 3.789062 -9.65625 5.125 -9.65625 Z M 5.125 -9.65625 "/>
</symbol>
<symbol overflow="visible" id="glyph0-2">
<path style="stroke:none;" d="M 1.28125 -9.484375 L 2.5625 -9.484375 L 2.5625 -5.59375 L 7.21875 -5.59375 L 7.21875 -9.484375 L 8.5 -9.484375 L 8.5 0 L 7.21875 0 L 7.21875 -4.515625 L 2.5625 -4.515625 L 2.5625 0 L 1.28125 0 Z M 1.28125 -9.484375 "/>
</symbol>
</g>
</defs>
<g id="surface34589">
<rect x="0" y="0" width="300" height="300" style="fill:rgb(100%,100%,100%);fill-opacity:1;stroke:none;"/>
<path style="fill:none;stroke-width:1.2;stroke-linecap:butt;stroke-linejoin:miter;stroke:rgb(0%,0%,0%);stroke-opacity:1;stroke-miterlimit:10;" d="M 146.558594 180.867188 L 134.679688 149.457031 "/>
<path style="fill:none;stroke-width:1.2;stroke-linecap:butt;stroke-linejoin:miter;stroke:rgb(0%,0%,0%);stroke-opacity:1;stroke-miterlimit:10;" d="M 179.703125 186.285156 L 146.558594 180.867188 "/>
<path style="fill:none;stroke-width:1.2;stroke-linecap:butt;stroke-linejoin:miter;stroke:rgb(0%,0%,0%);stroke-opacity:1;stroke-miterlimit:10;" d="M 134.679688 149.457031 L 145.308594 136.460938 "/>
<path style="fill:none;stroke-width:1.2;stroke-linecap:butt;stroke-linejoin:miter;stroke:rgb(100%,0%,0%);stroke-opacity:1;stroke-miterlimit:10;" d="M 145.308594 136.460938 L 155.941406 123.460938 "/>
<path style="fill:none;stroke-width:1;stroke-linecap:butt;stroke-linejoin:miter;stroke:rgb(0%,0%,0%);stroke-opacity:1;stroke-miterlimit:10;" d="M 134.679688 149.457031 L 134.679688 149.457031 M 131.847656 148.464844 L 131.679688 149.496094 M 129.015625 147.472656 L 128.679688 149.53125 M 126.183594 146.484375 L 125.679688 149.570312 M 123.351562 145.492188 L 122.679688 149.609375 M 120.519531 144.5 L 119.679688 149.644531 M 117.6875 143.511719 L 116.679688 149.683594 M 114.855469 142.519531 L 113.679688 149.722656 M 112.027344 141.527344 L 110.679688 149.761719 M 109.195312 140.535156 L 107.679688 149.796875 M 106.363281 139.546875 L 104.679688 149.835938 M 103.53125 138.554688 L 101.679688 149.875 M 102.492188 138.191406 L 100.578125 149.886719 "/>
<path style="fill:none;stroke-width:1.2;stroke-linecap:butt;stroke-linejoin:miter;stroke:rgb(100%,0%,0%);stroke-opacity:1;stroke-miterlimit:10;" d="M 155.941406 123.460938 L 172.511719 126.171875 "/>
<path style="fill:none;stroke-width:1.2;stroke-linecap:butt;stroke-linejoin:miter;stroke:rgb(0%,0%,0%);stroke-opacity:1;stroke-miterlimit:10;" d="M 172.511719 126.171875 L 189.082031 128.878906 "/>
<path style=" stroke:none;fill-rule:nonzero;fill:rgb(100%,100%,100%);fill-opacity:1;" d="M 150.941406 115.460938 L 161.941406 115.460938 L 161.941406 131.460938 L 150.941406 131.460938 Z M 150.941406 115.460938 "/>
<g style="fill:rgb(100%,0%,0%);fill-opacity:1;">
  <use xlink:href="#glyph0-1" x="150.941406" y="127.836914"/>
</g>
<path style="fill:none;stroke-width:1.2;stroke-linecap:butt;stroke-linejoin:miter;stroke:rgb(0%,0%,0%);stroke-opacity:1;stroke-miterlimit:10;" d="M 189.082031 128.878906 L 210.34375 102.882812 "/>
<path style="fill:none;stroke-width:1.2;stroke-linecap:butt;stroke-linejoin:miter;stroke:rgb(0%,0%,0%);stroke-opacity:1;stroke-miterlimit:10;" d="M 197.324219 131.28125 L 214.335938 110.484375 "/>
<path style="fill:none;stroke-width:1.2;stroke-linecap:butt;stroke-linejoin:miter;stroke:rgb(0%,0%,0%);stroke-opacity:1;stroke-miterlimit:10;" d="M 200.964844 160.289062 L 189.082031 128.878906 "/>
<path style="fill:none;stroke-width:1.2;stroke-linecap:butt;stroke-linejoin:miter;stroke:rgb(0%,0%,0%);stroke-opacity:1;stroke-miterlimit:10;" d="M 210.34375 102.882812 L 243.488281 108.300781 "/>
<path style="fill:none;stroke-width:1.2;stroke-linecap:butt;stroke-linejoin:miter;stroke:rgb(0%,0%,0%);stroke-opacity:1;stroke-miterlimit:10;" d="M 243.488281 108.300781 L 255.367188 139.710938 "/>
<path style="fill:none;stroke-width:1.2;stroke-linecap:butt;stroke-linejoin:miter;stroke:rgb(0%,0%,0%);stroke-opacity:1;stroke-miterlimit:10;" d="M 237.285156 114.238281 L 246.789062 139.367188 "/>
<path style="fill:none;stroke-width:1.2;stroke-linecap:butt;stroke-linejoin:miter;stroke:rgb(0%,0%,0%);stroke-opacity:1;stroke-miterlimit:10;" d="M 243.488281 108.300781 L 254.117188 95.304688 "/>
<path style="fill:none;stroke-width:1.2;stroke-linecap:butt;stroke-linejoin:miter;stroke:rgb(100%,0%,0%);stroke-opacity:1;stroke-miterlimit:10;" d="M 254.117188 95.304688 L 264.75 82.304688 "/>
<path style="fill:none;stroke-width:1.2;stroke-linecap:butt;stroke-linejoin:miter;stroke:rgb(0%,0%,0%);stroke-opacity:1;stroke-miterlimit:10;" d="M 255.367188 139.710938 L 234.105469 165.707031 "/>
<path style="fill:none;stroke-width:1.2;stroke-linecap:butt;stroke-linejoin:miter;stroke:rgb(0%,0%,0%);stroke-opacity:1;stroke-miterlimit:10;" d="M 234.105469 165.707031 L 200.964844 160.289062 "/>
<path style="fill:none;stroke-width:1.2;stroke-linecap:butt;stroke-linejoin:miter;stroke:rgb(0%,0%,0%);stroke-opacity:1;stroke-miterlimit:10;" d="M 232.066406 157.367188 L 205.550781 153.03125 "/>
<path style="fill:none;stroke-width:1.2;stroke-linecap:butt;stroke-linejoin:miter;stroke:rgb(0%,0%,0%);stroke-opacity:1;stroke-miterlimit:10;" d="M 234.105469 165.707031 L 240.046875 181.410156 "/>
<path style="fill:none;stroke-width:1.2;stroke-linecap:butt;stroke-linejoin:miter;stroke:rgb(100%,0%,0%);stroke-opacity:1;stroke-miterlimit:10;" d="M 240.046875 181.410156 L 245.988281 197.117188 "/>
<path style="fill:none;stroke-width:1.2;stroke-linecap:butt;stroke-linejoin:miter;stroke:rgb(0%,0%,0%);stroke-opacity:1;stroke-miterlimit:10;" d="M 200.964844 160.289062 L 179.703125 186.285156 "/>
<path style="fill:none;stroke-width:1.2;stroke-linecap:butt;stroke-linejoin:miter;stroke:rgb(0%,0%,0%);stroke-opacity:1;stroke-miterlimit:10;" d="M 176.007812 187.679688 L 181.945312 203.386719 "/>
<path style="fill:none;stroke-width:1.2;stroke-linecap:butt;stroke-linejoin:miter;stroke:rgb(100%,0%,0%);stroke-opacity:1;stroke-miterlimit:10;" d="M 181.945312 203.386719 L 187.886719 219.089844 "/>
<path style="fill:none;stroke-width:1.2;stroke-linecap:butt;stroke-linejoin:miter;stroke:rgb(0%,0%,0%);stroke-opacity:1;stroke-miterlimit:10;" d="M 183.398438 184.886719 L 189.335938 200.589844 "/>
<path style="fill:none;stroke-width:1.2;stroke-linecap:butt;stroke-linejoin:miter;stroke:rgb(100%,0%,0%);stroke-opacity:1;stroke-miterlimit:10;" d="M 189.335938 200.589844 L 195.277344 216.296875 "/>
<path style=" stroke:none;fill-rule:nonzero;fill:rgb(100%,100%,100%);fill-opacity:1;" d="M 186.582031 209.695312 L 197.582031 209.695312 L 197.582031 225.695312 L 186.582031 225.695312 Z M 186.582031 209.695312 "/>
<g style="fill:rgb(100%,0%,0%);fill-opacity:1;">
  <use xlink:href="#glyph0-1" x="186.582031" y="222.071289"/>
</g>
<path style=" stroke:none;fill-rule:nonzero;fill:rgb(100%,100%,100%);fill-opacity:1;" d="M 235.988281 189.117188 L 256.988281 189.117188 L 256.988281 205.117188 L 235.988281 205.117188 Z M 235.988281 189.117188 "/>
<g style="fill:rgb(100%,0%,0%);fill-opacity:1;">
  <use xlink:href="#glyph0-1" x="235.988281" y="201.493164"/>
  <use xlink:href="#glyph0-2" x="246.478516" y="201.493164"/>
</g>
<path style=" stroke:none;fill-rule:nonzero;fill:rgb(100%,100%,100%);fill-opacity:1;" d="M 254.75 74.304688 L 275.75 74.304688 L 275.75 90.304688 L 254.75 90.304688 Z M 254.75 74.304688 "/>
<g style="fill:rgb(100%,0%,0%);fill-opacity:1;">
  <use xlink:href="#glyph0-1" x="254.75" y="86.680664"/>
  <use xlink:href="#glyph0-2" x="265.240234" y="86.680664"/>
</g>
<path style="fill:none;stroke-width:1.2;stroke-linecap:butt;stroke-linejoin:miter;stroke:rgb(0%,0%,0%);stroke-opacity:1;stroke-miterlimit:10;" d="M 101.535156 144.039062 L 89.65625 112.628906 "/>
<path style="fill:none;stroke-width:1.2;stroke-linecap:butt;stroke-linejoin:miter;stroke:rgb(0%,0%,0%);stroke-opacity:1;stroke-miterlimit:10;" d="M 92.957031 143.695312 L 83.453125 118.566406 "/>
<path style="fill:none;stroke-width:1.2;stroke-linecap:butt;stroke-linejoin:miter;stroke:rgb(0%,0%,0%);stroke-opacity:1;stroke-miterlimit:10;" d="M 80.273438 170.035156 L 101.535156 144.039062 "/>
<path style="fill:none;stroke-width:1.2;stroke-linecap:butt;stroke-linejoin:miter;stroke:rgb(0%,0%,0%);stroke-opacity:1;stroke-miterlimit:10;" d="M 89.65625 112.628906 L 56.511719 107.210938 "/>
<path style="fill:none;stroke-width:1.2;stroke-linecap:butt;stroke-linejoin:miter;stroke:rgb(0%,0%,0%);stroke-opacity:1;stroke-miterlimit:10;" d="M 56.511719 107.210938 L 35.25 133.207031 "/>
<path style="fill:none;stroke-width:1.2;stroke-linecap:butt;stroke-linejoin:miter;stroke:rgb(0%,0%,0%);stroke-opacity:1;stroke-miterlimit:10;" d="M 60.503906 114.816406 L 43.492188 135.609375 "/>
<path style="fill:none;stroke-width:1.2;stroke-linecap:butt;stroke-linejoin:miter;stroke:rgb(0%,0%,0%);stroke-opacity:1;stroke-miterlimit:10;" d="M 35.25 133.207031 L 47.128906 164.617188 "/>
<path style="fill:none;stroke-width:1.2;stroke-linecap:butt;stroke-linejoin:miter;stroke:rgb(0%,0%,0%);stroke-opacity:1;stroke-miterlimit:10;" d="M 47.128906 164.617188 L 80.273438 170.035156 "/>
<path style="fill:none;stroke-width:1.2;stroke-linecap:butt;stroke-linejoin:miter;stroke:rgb(0%,0%,0%);stroke-opacity:1;stroke-miterlimit:10;" d="M 51.71875 157.359375 L 78.234375 161.695312 "/>
</g>
</svg>

<svg xmlns="http://www.w3.org/2000/svg" xmlns:xlink="http://www.w3.org/1999/xlink" width="300pt" height="300pt" viewBox="0 0 300 300"><defs><symbol overflow="visible"><path d="M.64 2.297v-11.47h6.5v11.47zm.735-.72h5.047V-8.436H1.375zm0 0"/></symbol><symbol overflow="visible" id="a"><path d="M5.125-8.61c-.938 0-1.684.352-2.234 1.047-.542.688-.812 1.633-.812 2.83 0 1.198.27 2.147.813 2.842.55.687 1.297 1.03 2.235 1.03.926 0 1.66-.343 2.203-1.03.55-.696.828-1.645.828-2.844 0-1.196-.277-2.14-.828-2.829-.543-.695-1.277-1.046-2.203-1.046zm0-1.046c1.32 0 2.38.45 3.172 1.344.8.898 1.203 2.09 1.203 3.578 0 1.5-.402 2.7-1.203 3.593C7.504-.255 6.445.186 5.125.186c-1.336 0-2.402-.44-3.203-1.328C1.13-2.036.734-3.235.734-4.735c0-1.49.395-2.68 1.188-3.579.8-.894 1.867-1.343 3.203-1.343zm0 0"/></symbol><symbol overflow="visible" id="b"><path d="M1.28-9.484h1.282v3.89H7.22v-3.89H8.5V0H7.22v-4.516H2.562V0H1.28zm0 0"/></symbol></defs><g><path fill="#fff" d="M0 0h300v300H0z"/><path d="M146.56 180.867l-11.88-31.41M179.703 186.285l-33.144-5.418M134.68 149.457l10.63-12.996" stroke-width="1.2" stroke="#000" stroke-miterlimit="10" fill="none"/><path d="M145.31 136.46l10.63-13" stroke-width="1.2" stroke="#f00" stroke-miterlimit="10" fill="none"/><path d="M134.68 149.457m-2.832-.992l-.168 1.03m-2.664-2.022l-.336 2.058m-2.496-3.046l-.504 3.086m-2.328-4.078l-.672 4.117m-2.16-5.11l-.84 5.145m-1.993-6.133l-1.007 6.172m-1.825-7.164l-1.175 7.203m-1.653-8.196l-1.347 8.235m-1.485-9.227l-1.515 9.262m-1.317-10.25l-1.683 10.29m-1.15-11.282l-1.85 11.32m.812-11.684l-1.914 11.697" stroke="#000" stroke-miterlimit="10" fill="none"/><path d="M155.94 123.46l16.572 2.712" stroke-width="1.2" stroke="#f00" stroke-miterlimit="10" fill="none"/><path d="M172.512 126.172l16.57 2.707" stroke-width="1.2" stroke="#000" stroke-miterlimit="10" fill="none"/><path d="M150.94 115.46h11v16h-11zm0 0" fill="#fff"/><use xlink:href="#a" x="150.941" y="127.837" fill="#f00"/><path d="M189.082 128.88l21.262-25.997M197.324 131.28l17.012-20.796M200.965 160.29l-11.883-31.41M210.344 102.883l33.144 5.418M243.488 108.3l11.88 31.41M237.285 114.238l9.504 25.13M243.488 108.3l10.63-12.995" stroke-width="1.2" stroke="#000" stroke-miterlimit="10" fill="none"/><path d="M254.117 95.305l10.633-13" stroke-width="1.2" stroke="#f00" stroke-miterlimit="10" fill="none"/><path d="M255.367 139.71l-21.262 25.997M234.105 165.707l-33.14-5.418M232.066 157.367l-26.515-4.336M234.105 165.707l5.942 15.703" stroke-width="1.2" stroke="#000" stroke-miterlimit="10" fill="none"/><path d="M240.047 181.41l5.94 15.707" stroke-width="1.2" stroke="#f00" stroke-miterlimit="10" fill="none"/><path d="M200.965 160.29l-21.262 25.995M176.008 187.68l5.937 15.707" stroke-width="1.2" stroke="#000" stroke-miterlimit="10" fill="none"/><path d="M181.945 203.387l5.942 15.703" stroke-width="1.2" stroke="#f00" stroke-miterlimit="10" fill="none"/><path d="M183.398 184.887l5.938 15.703" stroke-width="1.2" stroke="#000" stroke-miterlimit="10" fill="none"/><path d="M189.336 200.59l5.94 15.707" stroke-width="1.2" stroke="#f00" stroke-miterlimit="10" fill="none"/><path d="M186.582 209.695h11v16h-11zm0 0" fill="#fff"/><use xlink:href="#a" x="186.582" y="222.071" fill="#f00"/><path d="M235.988 189.117h21v16h-21zm0 0" fill="#fff"/><g fill="#f00"><use xlink:href="#a" x="235.988" y="201.493"/><use xlink:href="#b" x="246.479" y="201.493"/></g><path d="M254.75 74.305h21v16h-21zm0 0" fill="#fff"/><g fill="#f00"><use xlink:href="#a" x="254.75" y="86.681"/><use xlink:href="#b" x="265.24" y="86.681"/></g><path d="M101.535 144.04l-11.88-31.41M92.957 143.695l-9.504-25.13M80.273 170.035l21.262-25.996M89.656 112.63l-33.144-5.42M56.512 107.21L35.25 133.208M60.504 114.816L43.492 135.61M35.25 133.207l11.88 31.41M47.13 164.617l33.143 5.418M51.72 157.36l26.514 4.335" stroke-width="1.2" stroke="#000" stroke-miterlimit="10" fill="none"/></g></svg>
